X: 15451
T: Glen Ogle
R: reel
M: 4/4
K: Dmajor
|:A|d2fd B2ed|cABc dAFD|d2fd B2ed|cABc d3:|
e|f2df gfed|cABc dAFD|f2df gfed|cABc d2de|
f2df gfed|cABc dAFD|dfdf cecA|Bgec d3||

